!!!COM: Claude Debussy
!!!CNT: Francais
!!!TXO: Francais
!!!OTL: "Voici que le Printemps"
!!!LYR: Bourget
!!!OPR: 
!!!OPS: Op.
!!!ONM: No. 
!!!ENC: Emily Thomas
!!!YOR: CD Sheet Music French Art Songs, The Ultimate Collection
!!!YOR: CD Sheet Music, LLC 2003
!!!ODT: 1884/
!!NB: Vocal melody and text encoded.
**kern	**silbe
=1	=1
*clefG2	*
*k[f#c#]	*
*M2/4	*
*MM[Andantino]	*
2r	.
=2	=2
2r	.
=3	=3
2r	.
=4	=4
2r	.
=5	=5
8r	.
{8f#	{Voi-
8a	-ci
8a	que
=6	=6
8b	le
8b	prin-
8dd	-temps,
8dd	ce
=7	=7
8cc#	fils
16b	le/-
16a	|
8b	-ger
8b	d'a-
=8	=8
4.cc#}	-vril,}
{8f#	{Beau
=9	=9
8a	page
8b	en
12ff#	pour-
12ee	|
12cc#	-point
=10	=10
4.a}	vert,}
{8b	{bro-
=11	=11
8ff#	-de/
8ee	de
12cc#	ro-
12b	|
12g	-ses
=12	=12
4f#	blan-
8f#}	-ches,}
{8b	{Pa-
=13	=13
4dd	ra^it
8b	les-
16b}	-te,}
16r	.
=14	=14
8r	.
{8dd	{frin-
8cc#	-gant
8g#	et
=15	=15
8a	les
8b	poings
8cc#	sur
8ff#	les
=16	=16
4ee	han-
8ee}	-ches,}
8r	.
=17	=17
{12ee	{Com-
12cc#	-me
12a	un
12f#	prince
12a	ac-
12cc#	-cla-
=18	=18
8cc#	-me/
8a	re-
8f#	-vient
8c#	d'un
=19	=19
12e	long
12f#	|
12a	|
8f#	ex-
8d	|
=20	=20
2c#}	-il.}
=21	=21
8r	.
{8f#	{Les
8a	bran-
8a	-ches
=22	=22
8b	des
8b	buis-
8dd	-sons
8dd	ver-
=23	=23
8cc#	-dis
16b	ren-
16a	|
8b	-dent
8b	e/-
=24	=24
4cc#	-troi-
8a}	-te}
8r	.
=25	=25
8r	.
{8ccn	{La
8g	rou-
8ccn	-te
=26	=26
16a	qu'il
16b	|
8a	pour-
4a}	-suit}
=27	=27
8r	.
{8ccn	{en
8ee	dan-
8ccn	-sant
=28	=28
16a	com-
16b	-me
8a	un
4a}	fol;}
=29	=29
2r	.
=30	=30
2r	.
=31	=31
8r	.
{8dd	{Sur
8ee	son
8ee	e/-
=32	=32
8ff#	-pau-
8ff#	-le
4b	gauche
=33	=33
4ccn	il
8g	porte
8g	un
=34	=34
8a	ros-
8a	-si-
4e}	-gnol,}
=35	=35
8r	.
{8b-	{Un
8a	mer-
8fn	-le
=36	=36
8b-	s'est
8b-	po-
8a	-se/
8fn	sur
=37	=37
16d-	son
16e-	|
16d-	e/-
16e-	|
8fn	-pau-
8fn	-le
=38	=38
4fn	droi-
8fn}	-te,}
8r	.
=39	=39
2r	.
=40	=40
2r	.
=41	=41
4r	.
{8fn	{Et
8fn	les
=42	=42
*k[b-e-]	*
*MM[Un poco piu\ lento]	*
4f#	fleurs
8a	qui
8f#	dor-
=43	=43
4fn	-maient
4fn	sous
=44	=44
8f#	les
8f#	mous-
8a	-ses
8f#	des
=45	=45
4fn}	bois}
4r	.
=46	=46
8r	.
{8e-	{Ou-
8g	-vrent
8b-	leurs
=47	=47
8dd	yeux
8b-	|
8dd	ou\
8gg	|
=48	=48
12dd	flot-
12b-	-te
12g	om-
12e-	-bre
12g	bague
12b-	et
=49	=49
4cc	ten-
8cc}	-dre}
8r	.
=50	=50
{8f	{Et
8g	sur
12f	leurs
12e-	pe-
12f	-tits
=51	=51
8g	pieds
8dd	se
8b-	dres-
8g	-sent
=52	=52
8f	pour
8g	|
12f	en-
12e-	|
12f	|
=53	=53
4g	-ten-
8g}	-dre}
8r	.
=54	=54
4r	.
{12dd	{Les
12een	deux
12dd	oi-
=55	=55
8dd	-seaux
8cc	sif-
12b-	-fler
12a	et
12g	chan-
=56	=56
12g	-ter
12a	a\
12g	la
4g}	fois;}
=57	=57
4r	.
12r	.
{12d	{Car
12en	le
=58	=58
12f	mer-
12g	-le
12b-	sif-
[4a	-flote
=59	=59
4a]	|
8en	et
8en	le
=60	=60
12f	ros-
12g	-si-
12b-	-gnol
[4a	chan-
=61	=61
4a]	|
4en}	-te.}
=62	=62
8r	.
{8g	{Le
8g	mer-
8cc	-le
=63	=63
8cc	sif-
8dd	-fle
12a	ceux
12d	qui
12d	ne
=64	=64
12e-	sont
12e-	pas
12f	ai-
[4f#	-me/s,
=65	=65
4f#]}	|}
4r	.
=66	=66
4r	.
8r	.
{8f#	{Et
=67	=67
*k[f#c#]	*
*MM[Lento e molto espressivo]	*
8a	pour
8b	les
12ff#	a-
12ee	|
12cc#	-mou-
=68	=68
4.a	-reux,
8b	lan-
=69	=69
8ff#	-guis-
8ee	-sants
12cc#	et
12b	|
12g	char-
=70	=70
4f#}	-me/s,}
4r	.
=71	=71
{12e	{Le
12f#	ros-
12e	-si-
8g	-gnol
8b	pro-
=72	=72
4a	-lon-
8g	|
8f#	-geu-
=73	=73
8e	-ne
8g	chan-
8a	-son
8cc#	tou-
=74	=74
[2ee	-chan-
=75	=75
4ee]	|
4dd}	-te.}
==	==
*-	*-
